images_breeze_svg/cmd/32/recentfilelist.svg

<svg viewBox="0 0 32 32" xmlns="http://www.w3.org/2000/svg"><path d="m7 4v24h8v-1h-7v-22h11v7h7v4h1v-5l-7-7h-1zm13 12c-3.314 0-6 2.686-6 6s2.686 6 6 6 6-2.686 6-6-2.686-6-6-6zm0 1c2.761 0 5 2.239 5 5s-2.239 5-5 5-5-2.239-5-5 2.239-5 5-5zm-1 1v5h5v-1h-4v-4z" fill="#4d4d4d"/></svg>

<?xml version="1.0" encoding="UTF-8" standalone="no"?>
<svg
   xmlns:dc="http://purl.org/dc/elements/1.1/"
   xmlns:cc="http://creativecommons.org/ns#"
   xmlns:rdf="http://www.w3.org/1999/02/22-rdf-syntax-ns#"
   xmlns:svg="http://www.w3.org/2000/svg"
   xmlns="http://www.w3.org/2000/svg"
   xmlns:sodipodi="http://sodipodi.sourceforge.net/DTD/sodipodi-0.dtd"
   xmlns:inkscape="http://www.inkscape.org/namespaces/inkscape"
   viewBox="0 0 32 32"
   version="1.1"
   id="svg5"
   sodipodi:docname="recentfilelist.svg"
   inkscape:version="0.92.4 (unknown)"
   inkscape:export-filename="/home/rizmut/Dokumen/Rizmut/Github/tmp/breeze/cmd/32/recentfilelist.png"
   inkscape:export-xdpi="96"
   inkscape:export-ydpi="96">
  <metadata
     id="metadata9">
    <rdf:RDF>
      <cc:Work
         rdf:about="">
        <dc:format>image/svg+xml</dc:format>
        <dc:type
           rdf:resource="http://purl.org/dc/dcmitype/StillImage" />
        <dc:title></dc:title>
      </cc:Work>
    </rdf:RDF>
  </metadata>
  <sodipodi:namedview
     pagecolor="#ffffff"
     bordercolor="#666666"
     borderopacity="1"
     objecttolerance="10"
     gridtolerance="10"
     guidetolerance="10"
     inkscape:pageopacity="0"
     inkscape:pageshadow="2"
     inkscape:window-width="1360"
     inkscape:window-height="714"
     id="namedview7"
     showgrid="false"
     inkscape:zoom="7.375"
     inkscape:cx="-2.9152542"
     inkscape:cy="16"
     inkscape:window-x="0"
     inkscape:window-y="28"
     inkscape:window-maximized="1"
     inkscape:current-layer="svg5" />
  <defs
     id="defs3051">
    <style
       type="text/css"
       id="current-color-scheme">
      .ColorScheme-Text {
        color:#4d4d4d;
      }
      </style>
  </defs>
  <path
     style="fill:currentColor;fill-opacity:1;stroke:none"
     d="M 7 4 L 7 28 L 15 28 L 15 27 L 8 27 L 8 5 L 19 5 L 19 12 L 26 12 L 26 16 L 27 16 L 27 11 L 20 4 L 19 4 L 7 4 z M 20 16 C 16.686 16 14 18.686 14 22 C 14 25.314 16.686 28 20 28 C 23.314 28 26 25.314 26 22 C 26 18.686 23.314 16 20 16 z M 20 17 C 22.761 17 25 19.239 25 22 C 25 24.761 22.761 27 20 27 C 17.239 27 15 24.761 15 22 C 15 19.239 17.239 17 20 17 z M 19 18 L 19 23 L 24 23 L 24 22 L 20 22 L 20 18 L 19 18 z "
     id="path88"
     class="ColorScheme-Text" />
</svg>
